img/volume.svg

<svg width="38" height="31" viewBox="0 0 38 31" fill="none" xmlns="http://www.w3.org/2000/svg">
<path d="M19.3511 0C18.875 0 18.4622 0.161587 18.1138 0.484761L8.9609 8.97374H1.76C1.28282 8.97374 0.871122 9.13533 0.522673 9.4585C0.174224 9.78167 0 10.1645 0 10.6061V20.3939C0 20.8355 0.174224 21.2183 0.522673 21.5415C0.871122 21.8647 1.28393 22.0263 1.76 22.0263H8.9609L18.1138 30.5152C18.4622 30.8384 18.8739 31 19.3511 31C19.8283 31 20.24 30.8384 20.5884 30.5152C20.9369 30.1921 21.1111 29.8102 21.1111 29.3677V1.63234C21.1111 1.1908 20.9369 0.807935 20.5895 0.484761C20.2422 0.161587 19.8294 0 19.3522 0H19.3511Z" fill="#B3B3B3"/>
<path d="M29.5979 19.1321C30.3389 18.0151 30.7094 16.8082 30.7094 15.5103C30.7094 14.2124 30.3389 13.0014 29.5979 11.875C28.8569 10.7487 27.8774 9.95509 26.6561 9.49422C26.4819 9.40949 26.2634 9.36609 26.0027 9.36609C25.5499 9.36609 25.1572 9.52419 24.8258 9.83936C24.4943 10.1566 24.3286 10.5431 24.3286 11.0039C24.3286 11.3625 24.4331 11.6653 24.6432 11.9122C24.8532 12.1592 25.1044 12.3731 25.4011 12.5519C25.6966 12.7306 25.9932 12.927 26.2898 13.1409C26.5864 13.3548 26.8387 13.6565 27.0477 14.0492C27.2567 14.4418 27.3612 14.9285 27.3612 15.5082C27.3612 16.0879 27.2567 16.5746 27.0477 16.9673C26.8387 17.36 26.5864 17.6627 26.2898 17.8756C25.9932 18.0885 25.6966 18.2858 25.4011 18.4646C25.1044 18.6434 24.8522 18.8573 24.6432 19.1042C24.4342 19.3512 24.3286 19.655 24.3286 20.0125C24.3286 20.4734 24.4954 20.8609 24.8258 21.1771C25.1572 21.4912 25.5488 21.6514 26.0027 21.6514C26.2634 21.6514 26.4819 21.609 26.6561 21.5233C27.8763 21.0448 28.8569 20.2471 29.5979 19.129V19.1321Z" fill="#B3B3B3"/>
<path d="M35.7563 22.8582C37.252 20.6112 37.9999 18.157 37.9999 15.4989C37.9999 12.8419 37.252 10.3898 35.7563 8.13968C34.2605 5.89268 32.2811 4.25449 29.819 3.23036C29.591 3.14414 29.362 3.09998 29.1329 3.09998C28.6759 3.09998 28.2796 3.26506 27.9451 3.59522C27.6105 3.92538 27.4443 4.31548 27.4443 4.76761C27.4443 5.44476 27.7874 5.95682 28.4735 6.30486C29.4579 6.80851 30.1269 7.1902 30.4785 7.45096C31.7803 8.38888 32.7967 9.56442 33.5265 10.9797C34.2562 12.395 34.6216 13.9007 34.6216 15.5C34.6216 17.0972 34.2562 18.6039 33.5265 20.0202C32.7967 21.4355 31.7803 22.6111 30.4785 23.549C30.1269 23.8098 29.4579 24.1914 28.4735 24.6951C27.7874 25.0431 27.4443 25.5541 27.4443 26.2323C27.4443 26.6834 27.6116 27.0746 27.9451 27.4047C28.2785 27.7349 28.6833 27.9 29.1585 27.9C29.3694 27.9 29.59 27.8558 29.818 27.7696C32.28 26.7444 34.2605 25.1083 35.7552 22.8592L35.7563 22.8582Z" fill="#B3B3B3"/>
</svg>

<svg width="38" height="31" fill="none" xmlns="http://www.w3.org/2000/svg"><path d="M19.351 0a1.76 1.76 0 0 0-1.237.485L8.96 8.974H1.76c-.477 0-.889.161-1.237.485-.349.323-.523.706-.523 1.147v9.788c0 .442.174.824.523 1.148a1.76 1.76 0 0 0 1.237.484h7.2l9.154 8.49c.348.322.76.484 1.237.484.477 0 .889-.162 1.237-.485.349-.323.523-.705.523-1.147V1.632c0-.441-.174-.824-.521-1.147A1.755 1.755 0 0 0 19.352 0ZM29.598 19.132c.74-1.117 1.111-2.324 1.111-3.622s-.37-2.509-1.111-3.635-1.72-1.92-2.942-2.38a1.491 1.491 0 0 0-.653-.129c-.453 0-.846.158-1.177.473a1.547 1.547 0 0 0-.497 1.165c0 .359.104.661.314.908.21.247.461.461.758.64.296.179.592.375.889.589.296.214.549.515.758.908.209.393.313.88.313 1.46 0 .579-.104 1.066-.313 1.458-.21.393-.462.696-.758.909-.297.212-.593.41-.889.589a3.038 3.038 0 0 0-.758.64c-.209.246-.314.55-.314.907 0 .461.166.849.497 1.165.331.314.723.474 1.177.474.26 0 .479-.042.653-.128 1.22-.478 2.2-1.276 2.942-2.394v.003Z" fill="#B3B3B3"/><path d="M35.756 22.858C37.252 20.611 38 18.157 38 15.498c0-2.656-.748-5.108-2.244-7.358-1.495-2.247-3.475-3.886-5.937-4.91a1.93 1.93 0 0 0-.686-.13c-.457 0-.853.165-1.188.495-.335.33-.5.72-.5 1.173 0 .677.342 1.189 1.029 1.537.984.504 1.653.885 2.005 1.146a9.869 9.869 0 0 1 3.047 3.529 9.723 9.723 0 0 1 1.096 4.52 9.732 9.732 0 0 1-1.096 4.52 9.869 9.869 0 0 1-3.048 3.529c-.351.26-1.02.642-2.005 1.146-.686.348-1.029.86-1.029 1.537 0 .451.168.843.501 1.173.334.33.738.495 1.213.495.211 0 .432-.044.66-.13 2.462-1.026 4.442-2.662 5.937-4.91l.001-.002Z" fill="#B3B3B3"/></svg>
